src/components/AboutPage/BottomPageBanner.svg

<svg width="1160" height="158" viewBox="0 0 1160 158" fill="none" xmlns="http://www.w3.org/2000/svg">
<rect width="1212" height="158" fill="#FF7373" fill-opacity="0.35"/>
<path opacity="0.4" d="M1019 79L994 64.5662V93.4338L1019 79ZM804 81.5L996.5 81.5V76.5L804 76.5V81.5Z" fill="white"/>
<path d="M522.485 92V67.5H526.51L533.545 79.26L540.475 67.5H544.57V92H540.44V74.535L534.7 84.51H532.32L526.545 74.535V92H522.485ZM556.416 92.385C554.876 92.385 553.488 92.0233 552.251 91.3C551.038 90.5533 550.069 89.5267 549.346 88.22C548.646 86.89 548.296 85.3383 548.296 83.565C548.296 81.7917 548.646 80.2517 549.346 78.945C550.069 77.615 551.038 76.5883 552.251 75.865C553.488 75.1183 554.876 74.745 556.416 74.745C558.003 74.745 559.403 75.1183 560.616 75.865C561.853 76.5883 562.821 77.615 563.521 78.945C564.221 80.2517 564.571 81.7917 564.571 83.565C564.571 85.3383 564.221 86.89 563.521 88.22C562.821 89.5267 561.853 90.5533 560.616 91.3C559.403 92.0233 558.003 92.385 556.416 92.385ZM556.416 88.815C557.653 88.815 558.656 88.36 559.426 87.45C560.219 86.54 560.616 85.245 560.616 83.565C560.616 81.885 560.219 80.59 559.426 79.68C558.656 78.77 557.653 78.315 556.416 78.315C555.203 78.315 554.211 78.77 553.441 79.68C552.671 80.59 552.286 81.885 552.286 83.565C552.286 85.245 552.671 86.54 553.441 87.45C554.211 88.36 555.203 88.815 556.416 88.815ZM567.97 92V75.165H571.54L571.785 77.545C572.205 76.705 572.858 76.0283 573.745 75.515C574.655 75.0017 575.612 74.745 576.615 74.745C577.012 74.745 577.373 74.7683 577.7 74.815C578.027 74.8617 578.307 74.92 578.54 74.99V78.805C578.237 78.7117 577.875 78.6417 577.455 78.595C577.058 78.525 576.592 78.49 576.055 78.49C574.912 78.49 573.932 78.8633 573.115 79.61C572.322 80.3567 571.925 81.4067 571.925 82.76V92H567.97ZM588.684 92.385C586.234 92.385 584.251 91.65 582.734 90.18C581.218 88.6867 580.459 86.4817 580.459 83.565C580.459 81.745 580.798 80.1817 581.474 78.875C582.151 77.545 583.096 76.53 584.309 75.83C585.523 75.1067 586.911 74.745 588.474 74.745C590.038 74.745 591.368 75.13 592.464 75.9C593.561 76.6467 594.401 77.6733 594.984 78.98C595.568 80.2867 595.859 81.7567 595.859 83.39V84.3H584.344C584.438 85.98 584.881 87.1817 585.674 87.905C586.468 88.605 587.494 88.955 588.754 88.955C589.851 88.955 590.749 88.6983 591.449 88.185C592.149 87.6483 592.756 86.855 593.269 85.805L596.174 87.835C595.311 89.445 594.249 90.6117 592.989 91.335C591.753 92.035 590.318 92.385 588.684 92.385ZM584.519 81.255H591.974C591.788 80.1583 591.379 79.3183 590.749 78.735C590.143 78.1283 589.361 77.825 588.404 77.825C587.378 77.825 586.526 78.105 585.849 78.665C585.196 79.225 584.753 80.0883 584.519 81.255ZM614.926 92.245C613.106 92.315 611.601 91.9183 610.411 91.055C609.244 90.1917 608.661 88.9433 608.661 87.31C608.661 86.12 609.022 85.105 609.746 84.265C610.469 83.425 611.402 82.7717 612.546 82.305C613.689 81.815 614.867 81.5583 616.081 81.535C616.687 81.4883 617.259 81.535 617.796 81.675C618.332 81.815 618.811 82.0133 619.231 82.27V80.8C619.231 79.7033 618.997 78.9917 618.531 78.665C618.064 78.3383 617.376 78.175 616.466 78.175C615.486 78.175 614.447 78.3617 613.351 78.735C612.277 79.085 611.356 79.5283 610.586 80.065L608.801 77.02C609.757 76.4133 610.912 75.8883 612.266 75.445C613.619 74.9783 615.019 74.745 616.466 74.745C618.636 74.745 620.269 75.1883 621.366 76.075C622.462 76.9383 623.011 78.5133 623.011 80.8V88.535C623.011 89.025 623.116 89.305 623.326 89.375C623.559 89.445 624.072 89.3633 624.866 89.13V91.615C624.516 91.7783 624.072 91.9183 623.536 92.035C623.022 92.175 622.462 92.245 621.856 92.245C621.132 92.245 620.572 92.1283 620.176 91.895C619.802 91.6383 619.534 91.2183 619.371 90.635C618.787 91.125 618.111 91.51 617.341 91.79C616.571 92.0467 615.766 92.1983 614.926 92.245ZM614.856 88.815C616.162 88.7683 617.236 88.5117 618.076 88.045C618.939 87.5783 619.347 86.9133 619.301 86.05C619.277 85.49 618.986 85.105 618.426 84.895C617.889 84.685 617.212 84.6033 616.396 84.65C615.252 84.6733 614.307 84.965 613.561 85.525C612.814 86.0617 612.452 86.6683 612.476 87.345C612.522 88.395 613.316 88.885 614.856 88.815ZM636.422 92.385C635.465 92.385 634.59 92.1867 633.797 91.79C633.004 91.37 632.315 90.7983 631.732 90.075L631.522 92H628.092V67.045H632.047V76.67C632.607 76.0633 633.26 75.5967 634.007 75.27C634.754 74.92 635.559 74.745 636.422 74.745C637.985 74.745 639.374 75.095 640.587 75.795C641.824 76.495 642.792 77.51 643.492 78.84C644.192 80.1467 644.542 81.7217 644.542 83.565C644.542 85.4083 644.192 86.995 643.492 88.325C642.792 89.6317 641.824 90.635 640.587 91.335C639.374 92.035 637.985 92.385 636.422 92.385ZM636.282 88.815C637.519 88.815 638.545 88.36 639.362 87.45C640.179 86.54 640.587 85.245 640.587 83.565C640.587 81.885 640.179 80.59 639.362 79.68C638.545 78.77 637.519 78.315 636.282 78.315C635.045 78.315 634.019 78.77 633.202 79.68C632.385 80.59 631.977 81.885 631.977 83.565C631.977 85.245 632.385 86.54 633.202 87.45C634.019 88.36 635.045 88.815 636.282 88.815ZM655.195 92.385C653.655 92.385 652.267 92.0233 651.03 91.3C649.817 90.5533 648.849 89.5267 648.125 88.22C647.425 86.89 647.075 85.3383 647.075 83.565C647.075 81.7917 647.425 80.2517 648.125 78.945C648.849 77.615 649.817 76.5883 651.03 75.865C652.267 75.1183 653.655 74.745 655.195 74.745C656.782 74.745 658.182 75.1183 659.395 75.865C660.632 76.5883 661.6 77.615 662.3 78.945C663 80.2517 663.35 81.7917 663.35 83.565C663.35 85.3383 663 86.89 662.3 88.22C661.6 89.5267 660.632 90.5533 659.395 91.3C658.182 92.0233 656.782 92.385 655.195 92.385ZM655.195 88.815C656.432 88.815 657.435 88.36 658.205 87.45C658.999 86.54 659.395 85.245 659.395 83.565C659.395 81.885 658.999 80.59 658.205 79.68C657.435 78.77 656.432 78.315 655.195 78.315C653.982 78.315 652.99 78.77 652.22 79.68C651.45 80.59 651.065 81.885 651.065 83.565C651.065 85.245 651.45 86.54 652.22 87.45C652.99 88.36 653.982 88.815 655.195 88.815ZM672.419 92.385C670.669 92.385 669.234 91.825 668.114 90.705C667.018 89.585 666.469 87.9283 666.469 85.735V75.165H670.424V84.86C670.424 86.1433 670.693 87.1233 671.229 87.8C671.789 88.4767 672.513 88.815 673.399 88.815C674.403 88.815 675.219 88.465 675.849 87.765C676.479 87.065 676.794 86.0383 676.794 84.685V75.165H680.749V92H677.214L677.004 90.005C676.561 90.635 675.954 91.195 675.184 91.685C674.414 92.1517 673.493 92.385 672.419 92.385ZM691.93 92.385C690.274 92.385 689.002 92.0817 688.115 91.475C687.252 90.8683 686.82 89.655 686.82 87.835V78.56H683.6V75.165H686.82V69.25H690.74V75.165H695.395V78.56H690.74V86.82C690.74 87.6133 690.927 88.15 691.3 88.43C691.697 88.71 692.257 88.85 692.98 88.85C693.424 88.85 693.867 88.78 694.31 88.64C694.777 88.5 695.139 88.36 695.395 88.22V91.825C694.975 91.9883 694.45 92.1167 693.82 92.21C693.19 92.3267 692.56 92.385 691.93 92.385ZM708.312 92V75.165H711.847L712.092 77.195C712.418 76.495 712.967 75.9117 713.737 75.445C714.507 74.9783 715.393 74.745 716.397 74.745C717.493 74.745 718.45 75.0017 719.267 75.515C720.083 76.0283 720.713 76.7633 721.157 77.72C721.6 76.8567 722.242 76.145 723.082 75.585C723.945 75.025 724.925 74.745 726.022 74.745C727.678 74.745 729.008 75.3283 730.012 76.495C731.038 77.6383 731.552 79.26 731.552 81.36V92H727.562V82.27C727.562 81.0333 727.34 80.065 726.897 79.365C726.453 78.665 725.835 78.315 725.042 78.315C724.038 78.315 723.257 78.6767 722.697 79.4C722.16 80.1233 721.892 81.15 721.892 82.48V92H717.937V82.27C717.937 81.0333 717.703 80.065 717.237 79.365C716.77 78.665 716.14 78.315 715.347 78.315C714.367 78.315 713.608 78.6883 713.072 79.435C712.535 80.1583 712.267 81.1733 712.267 82.48V92H708.312ZM743.176 92.385C740.726 92.385 738.743 91.65 737.226 90.18C735.71 88.6867 734.951 86.4817 734.951 83.565C734.951 81.745 735.29 80.1817 735.966 78.875C736.643 77.545 737.588 76.53 738.801 75.83C740.015 75.1067 741.403 74.745 742.966 74.745C744.53 74.745 745.86 75.13 746.956 75.9C748.053 76.6467 748.893 77.6733 749.476 78.98C750.06 80.2867 750.351 81.7567 750.351 83.39V84.3H738.836C738.93 85.98 739.373 87.1817 740.166 87.905C740.96 88.605 741.986 88.955 743.246 88.955C744.343 88.955 745.241 88.6983 745.941 88.185C746.641 87.6483 747.248 86.855 747.761 85.805L750.666 87.835C749.803 89.445 748.741 90.6117 747.481 91.335C746.245 92.035 744.81 92.385 743.176 92.385ZM739.011 81.255H746.466C746.28 80.1583 745.871 79.3183 745.241 78.735C744.635 78.1283 743.853 77.825 742.896 77.825C741.87 77.825 741.018 78.105 740.341 78.665C739.688 79.225 739.245 80.0883 739.011 81.255ZM755.583 84.965L754.953 67.465H759.223L758.593 84.965H755.583ZM757.053 92.49C756.33 92.49 755.712 92.2333 755.198 91.72C754.685 91.2067 754.428 90.5883 754.428 89.865C754.428 89.1183 754.685 88.4883 755.198 87.975C755.712 87.4617 756.33 87.205 757.053 87.205C757.8 87.205 758.43 87.4617 758.943 87.975C759.48 88.4883 759.748 89.1183 759.748 89.865C759.748 90.5883 759.48 91.2067 758.943 91.72C758.43 92.2333 757.8 92.49 757.053 92.49Z" fill="white"/>
<g clip-path="url(#clip0_94_636)">
<path d="M1107.69 55H1066.16C1065.21 55 1064.3 55.3733 1063.62 56.0378C1062.95 56.7023 1062.57 57.6036 1062.57 58.5433V99.4567C1062.57 100.396 1062.95 101.298 1063.62 101.962C1064.3 102.627 1065.21 103 1066.16 103H1107.69C1108.65 103 1109.56 102.627 1110.24 101.962C1110.91 101.298 1111.29 100.396 1111.29 99.4567V58.5433C1111.29 57.6036 1110.91 56.7023 1110.24 56.0378C1109.56 55.3733 1108.65 55 1107.69 55ZM1077.09 95.89H1069.76V72.9667H1077.09V95.89ZM1073.42 69.79C1072.59 69.7854 1071.78 69.5384 1071.09 69.0802C1070.4 68.622 1069.87 67.9731 1069.55 67.2154C1069.24 66.4577 1069.16 65.6252 1069.32 64.8229C1069.49 64.0206 1069.89 63.2846 1070.48 62.7076C1071.07 62.1306 1071.82 61.7385 1072.64 61.5809C1073.45 61.4233 1074.3 61.5072 1075.06 61.822C1075.83 62.1368 1076.49 62.6683 1076.95 63.3496C1077.41 64.0309 1077.65 64.8314 1077.65 65.65C1077.66 66.1981 1077.56 66.7421 1077.35 67.2496C1077.14 67.7571 1076.82 68.2178 1076.43 68.6041C1076.03 68.9905 1075.56 69.2946 1075.05 69.4983C1074.53 69.702 1073.98 69.8012 1073.42 69.79ZM1104.09 95.91H1096.77V83.3867C1096.77 79.6933 1095.18 78.5533 1093.12 78.5533C1090.95 78.5533 1088.81 80.1667 1088.81 83.48V95.91H1081.49V72.9833H1088.53V76.16H1088.63C1089.34 74.75 1091.81 72.34 1095.59 72.34C1099.68 72.34 1104.09 74.73 1104.09 81.73L1104.09 95.91Z" fill="#0A66C2"/>
</g>
<defs>
<clipPath id="clip0_94_636">
<rect width="48.7236" height="48" fill="white" transform="translate(1062.57 55)"/>
</clipPath>
</defs>
</svg>

<svg xmlns="http://www.w3.org/2000/svg" width="1160" height="158" fill="none"><path fill="#FF7373" fill-opacity=".35" d="M0 0h1212v158H0z"/><path fill="#fff" d="m1019 79-25-14.434v28.868L1019 79Zm-215 2.5h192.5v-5H804v5Z" opacity=".4"/><path fill="#fff" d="M522.485 92V67.5h4.025l7.035 11.76 6.93-11.76h4.095V92h-4.13V74.535l-5.74 9.975h-2.38l-5.775-9.975V92h-4.06Zm33.931.385c-1.54 0-2.928-.362-4.165-1.085-1.213-.747-2.182-1.773-2.905-3.08-.7-1.33-1.05-2.882-1.05-4.655 0-1.773.35-3.313 1.05-4.62.723-1.33 1.692-2.357 2.905-3.08 1.237-.747 2.625-1.12 4.165-1.12 1.587 0 2.987.373 4.2 1.12 1.237.723 2.205 1.75 2.905 3.08.7 1.307 1.05 2.847 1.05 4.62 0 1.773-.35 3.325-1.05 4.655-.7 1.307-1.668 2.333-2.905 3.08-1.213.723-2.613 1.085-4.2 1.085Zm0-3.57c1.237 0 2.24-.455 3.01-1.365.793-.91 1.19-2.205 1.19-3.885 0-1.68-.397-2.975-1.19-3.885-.77-.91-1.773-1.365-3.01-1.365-1.213 0-2.205.455-2.975 1.365-.77.91-1.155 2.205-1.155 3.885 0 1.68.385 2.975 1.155 3.885.77.91 1.762 1.365 2.975 1.365ZM567.97 92V75.165h3.57l.245 2.38c.42-.84 1.073-1.517 1.96-2.03a5.758 5.758 0 0 1 2.87-.77c.397 0 .758.023 1.085.07.327.047.607.105.84.175v3.815a5.97 5.97 0 0 0-1.085-.21 8.158 8.158 0 0 0-1.4-.105c-1.143 0-2.123.373-2.94 1.12-.793.747-1.19 1.797-1.19 3.15V92h-3.955Zm20.714.385c-2.45 0-4.433-.735-5.95-2.205-1.516-1.493-2.275-3.698-2.275-6.615 0-1.82.339-3.383 1.015-4.69.677-1.33 1.622-2.345 2.835-3.045 1.214-.723 2.602-1.085 4.165-1.085 1.564 0 2.894.385 3.99 1.155 1.097.747 1.937 1.773 2.52 3.08.584 1.307.875 2.777.875 4.41v.91h-11.515c.094 1.68.537 2.882 1.33 3.605.794.7 1.82 1.05 3.08 1.05 1.097 0 1.995-.257 2.695-.77.7-.537 1.307-1.33 1.82-2.38l2.905 2.03c-.863 1.61-1.925 2.777-3.185 3.5-1.236.7-2.671 1.05-4.305 1.05Zm-4.165-11.13h7.455c-.186-1.097-.595-1.937-1.225-2.52-.606-.607-1.388-.91-2.345-.91-1.026 0-1.878.28-2.555.84-.653.56-1.096 1.423-1.33 2.59Zm30.407 10.99c-1.82.07-3.325-.327-4.515-1.19-1.167-.863-1.75-2.112-1.75-3.745 0-1.19.361-2.205 1.085-3.045.723-.84 1.656-1.493 2.8-1.96a9.349 9.349 0 0 1 3.535-.77c.606-.047 1.178 0 1.715.14.536.14 1.015.338 1.435.595V80.8c0-1.097-.234-1.808-.7-2.135-.467-.327-1.155-.49-2.065-.49-.98 0-2.019.187-3.115.56-1.074.35-1.995.793-2.765 1.33l-1.785-3.045c.956-.607 2.111-1.132 3.465-1.575a12.79 12.79 0 0 1 4.2-.7c2.17 0 3.803.443 4.9 1.33 1.096.863 1.645 2.438 1.645 4.725v7.735c0 .49.105.77.315.84.233.07.746-.012 1.54-.245v2.485c-.35.163-.794.303-1.33.42-.514.14-1.074.21-1.68.21-.724 0-1.284-.117-1.68-.35-.374-.257-.642-.677-.805-1.26-.584.49-1.26.875-2.03 1.155a9.219 9.219 0 0 1-2.415.455Zm-.07-3.43c1.306-.047 2.38-.303 3.22-.77.863-.467 1.271-1.132 1.225-1.995-.024-.56-.315-.945-.875-1.155-.537-.21-1.214-.292-2.03-.245-1.144.023-2.089.315-2.835.875-.747.537-1.109 1.143-1.085 1.82.046 1.05.84 1.54 2.38 1.47Zm21.566 3.57c-.957 0-1.832-.198-2.625-.595a6.604 6.604 0 0 1-2.065-1.715l-.21 1.925h-3.43V67.045h3.955v9.625a5.81 5.81 0 0 1 1.96-1.4 5.62 5.62 0 0 1 2.415-.525c1.563 0 2.952.35 4.165 1.05 1.237.7 2.205 1.715 2.905 3.045.7 1.307 1.05 2.882 1.05 4.725 0 1.843-.35 3.43-1.05 4.76-.7 1.307-1.668 2.31-2.905 3.01-1.213.7-2.602 1.05-4.165 1.05Zm-.14-3.57c1.237 0 2.263-.455 3.08-1.365.817-.91 1.225-2.205 1.225-3.885 0-1.68-.408-2.975-1.225-3.885-.817-.91-1.843-1.365-3.08-1.365s-2.263.455-3.08 1.365c-.817.91-1.225 2.205-1.225 3.885 0 1.68.408 2.975 1.225 3.885.817.91 1.843 1.365 3.08 1.365Zm18.913 3.57c-1.54 0-2.928-.362-4.165-1.085-1.213-.747-2.181-1.773-2.905-3.08-.7-1.33-1.05-2.882-1.05-4.655 0-1.773.35-3.313 1.05-4.62.724-1.33 1.692-2.357 2.905-3.08 1.237-.747 2.625-1.12 4.165-1.12 1.587 0 2.987.373 4.2 1.12 1.237.723 2.205 1.75 2.905 3.08.7 1.307 1.05 2.847 1.05 4.62 0 1.773-.35 3.325-1.05 4.655-.7 1.307-1.668 2.333-2.905 3.08-1.213.723-2.613 1.085-4.2 1.085Zm0-3.57c1.237 0 2.24-.455 3.01-1.365.794-.91 1.19-2.205 1.19-3.885 0-1.68-.396-2.975-1.19-3.885-.77-.91-1.773-1.365-3.01-1.365-1.213 0-2.205.455-2.975 1.365-.77.91-1.155 2.205-1.155 3.885 0 1.68.385 2.975 1.155 3.885.77.91 1.762 1.365 2.975 1.365Zm17.224 3.57c-1.75 0-3.185-.56-4.305-1.68-1.096-1.12-1.645-2.777-1.645-4.97v-10.57h3.955v9.695c0 1.283.269 2.263.805 2.94.56.677 1.284 1.015 2.17 1.015 1.004 0 1.82-.35 2.45-1.05.63-.7.945-1.727.945-3.08v-9.52h3.955V92h-3.535l-.21-1.995c-.443.63-1.05 1.19-1.82 1.68-.77.467-1.691.7-2.765.7Zm19.511 0c-1.656 0-2.928-.303-3.815-.91-.863-.607-1.295-1.82-1.295-3.64V78.56h-3.22v-3.395h3.22V69.25h3.92v5.915h4.655v3.395h-4.655v8.26c0 .793.187 1.33.56 1.61.397.28.957.42 1.68.42.444 0 .887-.07 1.33-.21.467-.14.829-.28 1.085-.42v3.605c-.42.163-.945.292-1.575.385-.63.117-1.26.175-1.89.175ZM708.312 92V75.165h3.535l.245 2.03c.326-.7.875-1.283 1.645-1.75.77-.467 1.656-.7 2.66-.7 1.096 0 2.053.257 2.87.77.816.513 1.446 1.248 1.89 2.205a5.625 5.625 0 0 1 1.925-2.135c.863-.56 1.843-.84 2.94-.84 1.656 0 2.986.583 3.99 1.75 1.026 1.143 1.54 2.765 1.54 4.865V92h-3.99v-9.73c0-1.237-.222-2.205-.665-2.905-.444-.7-1.062-1.05-1.855-1.05-1.004 0-1.785.362-2.345 1.085-.537.723-.805 1.75-.805 3.08V92h-3.955v-9.73c0-1.237-.234-2.205-.7-2.905-.467-.7-1.097-1.05-1.89-1.05-.98 0-1.739.373-2.275 1.12-.537.723-.805 1.738-.805 3.045V92h-3.955Zm34.864.385c-2.45 0-4.433-.735-5.95-2.205-1.516-1.493-2.275-3.698-2.275-6.615 0-1.82.339-3.383 1.015-4.69.677-1.33 1.622-2.345 2.835-3.045 1.214-.723 2.602-1.085 4.165-1.085 1.564 0 2.894.385 3.99 1.155 1.097.747 1.937 1.773 2.52 3.08.584 1.307.875 2.777.875 4.41v.91h-11.515c.094 1.68.537 2.882 1.33 3.605.794.7 1.82 1.05 3.08 1.05 1.097 0 1.995-.257 2.695-.77.7-.537 1.307-1.33 1.82-2.38l2.905 2.03c-.863 1.61-1.925 2.777-3.185 3.5-1.236.7-2.671 1.05-4.305 1.05Zm-4.165-11.13h7.455c-.186-1.097-.595-1.937-1.225-2.52-.606-.607-1.388-.91-2.345-.91-1.026 0-1.878.28-2.555.84-.653.56-1.096 1.423-1.33 2.59Zm16.572 3.71-.63-17.5h4.27l-.63 17.5h-3.01Zm1.47 7.525a2.53 2.53 0 0 1-1.855-.77 2.53 2.53 0 0 1-.77-1.855c0-.747.257-1.377.77-1.89a2.53 2.53 0 0 1 1.855-.77c.747 0 1.377.257 1.89.77.537.513.805 1.143.805 1.89 0 .723-.268 1.342-.805 1.855-.513.513-1.143.77-1.89.77Z"/><g clip-path="url(#a)"><path fill="#0A66C2" d="M1107.69 55h-41.53c-.95 0-1.86.373-2.54 1.038a3.532 3.532 0 0 0-1.05 2.505v40.914c0 .939.38 1.841 1.05 2.505a3.631 3.631 0 0 0 2.54 1.038h41.53c.96 0 1.87-.373 2.55-1.038a3.532 3.532 0 0 0 1.05-2.505V58.543c0-.94-.38-1.84-1.05-2.505a3.64 3.64 0 0 0-2.55-1.038Zm-30.6 40.89h-7.33V72.967h7.33V95.89Zm-3.67-26.1a4.255 4.255 0 0 1-2.33-.71 4.185 4.185 0 0 1-1.54-1.865 4.167 4.167 0 0 1-.23-2.392 4.16 4.16 0 0 1 1.16-2.115c.59-.577 1.34-.97 2.16-1.127a4.24 4.24 0 0 1 2.42.241c.77.315 1.43.846 1.89 1.528.46.68.7 1.481.7 2.3.01.548-.09 1.092-.3 1.6a4.16 4.16 0 0 1-.92 1.354c-.4.386-.87.69-1.38.894-.52.204-1.07.303-1.63.292Zm30.67 26.12h-7.32V83.387c0-3.694-1.59-4.834-3.65-4.834-2.17 0-4.31 1.614-4.31 4.927v12.43h-7.32V72.983h7.04v3.177h.1c.71-1.41 3.18-3.82 6.96-3.82 4.09 0 8.5 2.39 8.5 9.39v14.18Z"/></g><defs><clipPath id="a"><path fill="#fff" d="M1062.57 55h48.724v48h-48.724z"/></clipPath></defs></svg>
